icons/entity/icon_moneybox_m_white.svg

<?xml version="1.0" encoding="UTF-8"?>
<svg width="24px" height="24px" viewBox="0 0 24 24" version="1.1" xmlns="http://www.w3.org/2000/svg" xmlns:xlink="http://www.w3.org/1999/xlink">
    <!-- Generator: Sketch 47.1 (45422) - http://www.bohemiancoding.com/sketch -->
    <title>icon_moneybox_m_white</title>
    <desc>Created with Sketch.</desc>
    <defs></defs>
    <g id="Page-1" stroke="none" stroke-width="1" fill="none" fill-rule="evenodd">
        <g id="icon_category_moneybox_m_white" fill="#FFFFFF">
            <g id="Group-3">
                <rect id="Rectangle-2" fill-opacity="0" x="0" y="0" width="24" height="24"></rect>
                <path d="M4.39553647,17.5894404 L4.36418619,17.5210032 C4.36631791,17.5409913 4.37364332,17.5633673 4.39553647,17.5894404 Z M0.251408927,14.0319916 L0,13.9193008 L6.52649464e-14,10.7854534 L0.252951184,10.6732719 C1.62467974,10.0649234 2.29389572,9.48218854 3.05969922,8.36817448 C3.14741497,8.2405744 3.23827824,8.10431056 3.35743457,7.92253909 C3.3815297,7.88578227 3.50231807,7.70074347 3.59326237,7.56167006 C3.55952463,7.50444192 3.51412069,7.43439441 3.44857688,7.33767524 C3.42454555,7.3022136 3.28656177,7.10106064 3.24545858,7.0401909 C3.17725385,6.93918646 3.12065596,6.85257747 3.06863092,6.76865028 C2.6088031,6.0268527 2.49461151,5.46458791 3.10609074,5.12646032 C3.55445013,4.87853255 4.10416267,5.00802927 4.95256177,5.39292367 C5.05884238,5.44114015 5.16920552,5.49319463 5.29907611,5.55596114 C5.95092067,5.87099791 6.30359625,6.018606 6.24074955,6.05080825 C8.25598705,5.01821326 9.76363467,4.575 11.569516,4.575 C16.9337657,4.575 21,7.87241863 21,12.1538462 C21,14.3585278 19.9000982,16.3795489 17.9888078,17.7861087 C17.9923791,17.8582156 18.000778,17.9530184 18.0142004,18.068673 C18.0536398,18.4085047 18.1342169,18.9120258 18.2557244,19.5761112 L18.3226756,19.9420255 L15.9129209,20.721358 L15.7339272,20.4539064 C15.41667,19.9798623 15.1679041,19.6299218 14.9903349,19.40708 C14.9516949,19.3585884 14.9170861,19.316985 14.8870696,19.2826659 C13.8496511,19.5794765 12.7337538,19.7326923 11.569516,19.7326923 C10.3723022,19.7326923 9.05802824,19.4967915 7.70557465,19.0599656 C7.65817893,19.1098293 7.60067184,19.1736769 7.53394115,19.2508134 C7.30506278,19.5153827 6.97730526,19.9246998 6.55262582,20.4766834 L6.37322527,20.709862 L3.82565005,19.9400788 L3.93168995,19.5430121 C4.12672914,18.8126873 4.2562216,18.2585827 4.31971862,17.8851818 C4.34746092,17.7220404 4.36168474,17.5980439 4.36326302,17.5189879 C3.72551073,16.1267827 2.33063135,14.9639761 0.251408927,14.0319916 Z M7.76296142,18.1835539 C9.10856388,18.6380143 10.4091167,18.8826923 11.569516,18.8826923 C12.7279626,18.8826923 13.8308654,18.7205876 14.8444019,18.4085321 C15.2402052,18.2866691 15.4529103,18.513079 16.2630017,19.7145972 L17.3510776,19.3627054 C17.0624127,17.7602639 17.044114,17.4130785 17.3468762,17.200072 C19.1322742,15.9439664 20.1480371,14.1292179 20.1480371,12.1538462 C20.1480371,8.38520643 16.4976384,5.425 11.569516,5.425 C9.91586746,5.425 8.53432059,5.83114258 6.62996822,6.80692073 C6.38658911,6.93162665 6.15361303,6.87963243 5.76865856,6.71851441 C5.65483928,6.67087673 5.52918769,6.6130318 5.36330606,6.53305223 C5.28945228,6.49744375 4.99753072,6.35470354 4.92765547,6.3209328 C4.80351245,6.26093443 4.69907874,6.21167666 4.59990546,6.16668457 C4.01359479,5.90069219 3.62778304,5.80980586 3.5190932,5.86990772 C3.5526306,5.85136265 3.57742311,5.97343777 3.79321736,6.32155863 C3.83864137,6.39483697 3.88951614,6.47268817 3.95202959,6.56526438 C3.99093028,6.62287243 4.12838053,6.82324762 4.15436168,6.86158649 C4.23324426,6.9779889 4.28885677,7.06406552 4.33504274,7.14341008 C4.53529468,7.48743016 4.60712379,7.73382162 4.35297934,7.95553239 C4.26412225,8.09124281 4.09966509,8.34321252 4.0704455,8.38778663 C3.94816726,8.57432054 3.85415475,8.71530716 3.76229527,8.84893511 C2.95939305,10.0169167 2.21162571,10.6947311 0.851962865,11.3344992 C0.851962865,12.2851796 0.851962865,12.438759 0.851962865,13.3718848 C2.92697262,14.344557 4.37313705,15.5699049 5.08687136,17.0558537 C5.33447188,17.3307315 5.24149421,17.9076733 4.86011285,19.3645274 L6.05633309,19.725981 C7.22860895,18.2054732 7.38188189,18.0548491 7.76296142,18.1835539 Z" id="Oval-Copy" fill-rule="nonzero"></path>
                <path d="M9.2187903,7.94608818 C10.4659708,7.33915465 12.3444539,7.36919011 13.2885115,7.92697525 L13.7971955,7.06602191 C12.5558908,6.33261196 10.322394,6.29690011 8.7812097,7.04690899 L9.2187903,7.94608818 Z" id="Path-2-Copy" fill-rule="nonzero" opacity="0.300000012"></path>
                <circle id="Oval-2-Copy" opacity="0.300000012" cx="4.40384615" cy="10.6346154" r="1"></circle>
                <path d="M22.6748688,11.1362495 C22.6835475,10.869128 22.5724956,10.7436339 22.4248758,10.7386442 C22.2865849,10.7339699 22.1844556,10.8359472 22.1888338,11.0561588 C22.1965677,11.4451624 22.2651971,11.7227707 22.4567336,11.9127375 C22.6075981,11.7392047 22.6634117,11.4888866 22.6748688,11.1362495 Z M23.1539783,12.2078075 C23.0031141,12.4585818 22.7811815,12.6440936 22.4750304,12.7722905 C22.100956,12.9289294 21.6011476,13 20.9516174,13 L20.9516174,12.261519 C21.2745959,12.261519 21.5390465,12.2484572 21.7550752,12.2172434 C22.0967782,12.1678711 22.317333,12.0730839 22.4567336,11.9127375 C22.6054169,12.0602022 22.8281627,12.1548551 23.1539783,12.2078075 C23.382127,12.2448868 23.6608143,12.261519 24,12.261519 L24,13 C23.3584165,13 22.8569405,12.9257491 22.4750304,12.7722905 C22.1552248,12.6437866 21.9192603,12.4597411 21.7550752,12.2172434 C21.5558201,11.9229483 21.4622835,11.5425633 21.4529059,11.070886 C21.4401414,10.4288618 21.88807,9.98159978 22.4496604,10.0005819 C23.0121394,10.0195941 23.4321917,10.4942737 23.4105524,11.1603083 C23.3965326,11.5918225 23.3164865,11.9376778 23.1539783,12.2078075 Z" id="Path-3-Copy" fill-rule="nonzero"></path>
            </g>
        </g>
    </g>
</svg>

<svg width="24" height="24" viewBox="0 0 24 24" xmlns="http://www.w3.org/2000/svg">
  <g fill="#FFF" fill-rule="evenodd">
    <path fill="none" d="M0 0h24v24H0z"/>
    <path d="M4.396 17.59l-.032-.07c.002.02.01.043.032.07zM.25 14.03L0 13.92v-3.135l.253-.112c1.372-.608 2.04-1.19 2.807-2.305.087-.127.178-.264.297-.445l.236-.36c-.033-.06-.08-.13-.144-.225l-.205-.298c-.068-.1-.124-.187-.176-.27-.46-.743-.575-1.305.036-1.644.448-.247.998-.118 1.847.267.106.048.216.1.346.163.65.315 1.004.463.94.495 2.016-1.032 3.524-1.475 5.33-1.475 5.364 0 9.43 3.297 9.43 7.58 0 2.204-1.1 4.225-3.01 5.63.002.073.01.168.024.284.04.34.12.842.242 1.506l.067.366-2.41.78-.18-.268c-.316-.474-.565-.824-.743-1.047-.038-.048-.073-.09-.103-.124-1.037.296-2.153.45-3.317.45-1.198 0-2.512-.236-3.864-.673-.048.05-.105.114-.172.19-.23.265-.557.675-.98 1.227l-.18.233-2.548-.77.106-.397c.195-.73.324-1.284.388-1.658.027-.163.042-.287.043-.366C3.726 16.126 2.33 14.963.25 14.03zm7.513 4.152c1.346.454 2.646.7 3.807.7 1.158 0 2.26-.163 3.274-.475.396-.123.61.103 1.42 1.305l1.087-.352c-.288-1.603-.306-1.95-.003-2.163 1.785-1.256 2.8-3.07 2.8-5.046 0-3.77-3.65-6.73-8.577-6.73-1.654 0-3.036.407-4.94 1.383-.243.125-.476.073-.86-.088-.115-.05-.24-.107-.407-.187l-.435-.212c-.124-.06-.23-.108-.328-.153-.586-.266-.972-.357-1.08-.297.033-.02.057.103.273.452.046.073.097.15.16.243.038.058.175.258.2.297.08.116.136.202.182.28.2.345.272.592.018.814-.09.135-.253.387-.283.432-.122.186-.216.327-.308.46-.803 1.17-1.55 1.847-2.91 2.486v2.038c2.075.973 3.52 2.198 4.235 3.684.247.275.154.852-.227 2.31l1.196.36c1.173-1.52 1.326-1.67 1.707-1.542z" fill-rule="nonzero"/>
    <path d="M9.22 7.946c1.246-.607 3.124-.577 4.07-.02l.507-.86c-1.24-.733-3.475-.77-5.016-.02l.44.9z" fill-rule="nonzero" opacity=".3"/>
    <circle opacity=".3" cx="4.404" cy="10.635" r="1"/>
    <path d="M22.675 11.136c.01-.267-.103-.392-.25-.397-.138-.006-.24.096-.236.316.007.39.075.667.267.857.15-.174.206-.424.218-.777zm.48 1.072c-.152.25-.374.436-.68.564-.374.157-.874.228-1.523.228v-.738c.323 0 .587-.014.803-.045.342-.05.562-.144.702-.304.148.147.37.242.697.295.228.037.507.054.846.054V13c-.642 0-1.143-.074-1.525-.228-.32-.128-.556-.312-.72-.555-.2-.294-.293-.674-.302-1.146-.013-.64.435-1.088.997-1.07.562.02.982.494.96 1.16-.013.432-.094.778-.256 1.048z" fill-rule="nonzero"/>
  </g>
</svg>
